public/avatar/item1/65.svg

<svg xmlns:xlink="http://www.w3.org/1999/xlink" height="65.4" width="80.15" xmlns="http://www.w3.org/2000/svg"><use height="8.05" transform="translate(10.35 35.45)" width="42.35" xlink:href="#a"/><defs><g id="a" fill-rule="evenodd"><path d="m20.75 24.1.2.4.15.25H21q.35 1.25-.45 2.75l-1.4 1.8-2.15.4q-1.05-.15-2.15-.75-1.7-1-1.7-2.1l-.05.15-.05-.05q-.45-2.05-.15-3.8l.3-.6.05-.15.05.1q2-1.1 4.6-.8h.15l.05.05.15.15.05.05.05.1 2.4 2.2v-.15m-7.15-1.2-.05.05h-.1l-.05.05-.1.85v1.25l.3 1.15v.05q.55 1.2 1.9 1.85l1.2.4.45.05.45.05 1-.35.2-.15.1-.05.1-.1.95-1 .3-.6.1-.35q.3-1.4-1.45-2.85l-1.55-1.1q-2.05.1-3.75.8m1.35.55-.55.4v.05q1.6.5 3.3-.5l.05-.1-.05-.15v-.05l-.25-.1-.1-.05H17q-1.2.05-2.05.5m-1.15-.2.8-.05q.95-.4 2.15-.5l.45-.1 1.35.75q1.6 1.35.6 3-1.05 1.75-2.2 1.4l.65-.2q-1.45.7-2.6-.85-1.1-1.5-1.2-3.45m4.25.65-1.1.25q-.55.1-1.05.35v.05L15 25v.05q1.85.7 3.8-.65l-.25-.5-.25-.05-.25.05m-1.8 2.2-.55.3v.05q1.65.8 3.15-.75l-.1-.25-.25-.1-.4.1-.1.05-.3.05-.5.15-.95.4m-33.35-3.15h-.4l-.1.05-.25.1v.05l-.05.15.05.1q1.7 1 3.3.5v-.05l-.55-.4-2-.5m-1.35-1 .05-.05.15-.15.05-.05h.15q2.6-.3 4.65.8v-.1l.1.15.3.6q.25 1.75-.2 3.8l-.05.05-.05-.15q0 1.1-1.7 2.1l-2.1.75-2.15-.4-1.45-1.8q-.8-1.5-.45-2.75h-.1l.2-.25.15-.4.05.15q.9-1.2 2.4-2.2v-.1m2.45 2.6v-.05q-.55-.25-1.05-.35l-1.1-.25h-.05l-.25-.05-.25.05q-.3.15-.25.5 1.95 1.35 3.8.65V25l-.85-.45m-.85-1.85 2.1.5.8.05q-.1 1.95-1.2 3.45-1.15 1.55-2.55.85l.65.2q-1.2.35-2.25-1.4-1-1.65.6-3l1.35-.75.5.1m3.1.2q-1.7-.7-3.75-.8l-1.55 1.1q-1.75 1.45-1.45 2.85l.1.35.3.6 1 1 .05.1.1.05.25.15 1 .35.4-.05.5-.05 1.15-.4q1.35-.65 1.9-1.85l.05-.05.25-1.15v-1.25l-.1-.85-.05-.05h-.05l-.1-.05m-2.6 3.2-1-.4-.45-.15-.2-.05-.2-.05-.45-.1-.25.1-.1.25q1.5 1.55 3.15.75v-.05l-.5-.3" fill="#3a3629" transform="translate(21.25 -21.65)"/><path d="M14.95 23.45q.85-.45 2.05-.5-.5 1.15-2.05.5m3.1.45.3.05.25.15v.2l-2.85.45v-.05l.15-.15v-.05q.5-.25 1.05-.35l1.1-.25m-1.8 2.2.95-.4.5-.15.3-.05.1-.05h.15l.25.25q-1.2.95-2.25.4m-31.35-2.65q-1.55.65-2-.5l2 .5m-3.1.45h.05l1.1.25q.5.1 1.05.35v.05l.1.15v.05q-1.3.15-2.85-.45v-.2l.25-.15.3-.05m.4 1.65.45.15 1 .4q-1.1.55-2.3-.4l.25-.25h.2l.2.05.2.05" fill="#fff" transform="translate(21.25 -21.65)"/><path d="M17 22.95h.35l.1.05.25.1v.05l.05.15-.05.1q-1.7 1-3.3.5v-.05l.55-.4q1.55.65 2.05-.5m-1.1 1.6-.15.15v.05l2.85-.45v-.2l-.25-.15-.3-.05.25-.05.25.05.25.5q-1.95 1.35-3.8.65V25l.9-.45m2.2.9.4-.1.25.1.1.25q-1.5 1.55-3.15.75v-.05l.55-.3q1.05.55 2.25-.4l-.25-.25h-.15m-33.2-2 .55.4v.05q-1.6.5-3.3-.5l-.05-.1.05-.15v-.05l.25-.1.1-.05h.4q.45 1.15 2 .5m-.9 1.1.85.45v.05q-1.85.7-3.8-.65-.05-.35.25-.5l.25-.05.25.05-.3.05-.25.15v.2q1.55.6 2.85.45v-.05l-.1-.15m-.35 1.55.5.3v.05q-1.65.8-3.15-.75l.1-.25.25-.1.45.1h-.2l-.25.25q1.2.95 2.3.4" fill="#dfa63c" transform="translate(21.25 -21.65)"/><path d="m13.6 26.3.15.2.05.05v-.05l1.15 1.2.1.05-1.15-2.65-.3-2.15v-.05q1.7-.7 3.75-.8l1.55 1.1q1.75 1.45 1.45 2.85l-.1-.85q-1.05 2.05-2.65 3.45l-.45-.05-.45-.05q.15-.55-.5-.7l-.3-.1q-.3-.05-.45.2l-.05.05.1.15q-1.35-.65-1.9-1.85m.2-3.05q.1 1.95 1.2 3.45 1.15 1.55 2.6.85l-.65.2q1.15.35 2.2-1.4 1-1.65-.6-3l-1.35-.75-.45.1q-1.2.1-2.15.5l-.8.05m-34.3 2.8q-.3-1.4 1.45-2.85l1.55-1.1q2.05.1 3.75.8v.05L-14 25.1l-1.2 2.65.1-.05 1.15-1.2v.05l.05-.05.15-.2q-.55 1.2-1.9 1.85l.1-.15-.05-.05q-.15-.25-.45-.2l-.3.1q-.65.15-.45.7l-.5.05-.4.05q-1.65-1.4-2.7-3.45l-.1.85m3.65-3.35-.5-.1-1.35.75q-1.6 1.35-.6 3 1.05 1.75 2.25 1.4l-.65-.2q1.4.7 2.55-.85 1.1-1.5 1.2-3.45l-.8-.05-2.1-.5" fill="#4f7b63" transform="translate(21.25 -21.65)"/><path d="M13.6 26.3v-.05l-.3-1.15v-1.25l.1-.85.05-.05h.1l.05-.05v.05l.3 2.15 1.15 2.65-.1-.05-1.15-1.2v.05l-.05-.05-.15-.2m6.75-.25-.1.35-.3.6-.95 1-.1.1-.1.05-.2.15-1 .35q1.6-1.4 2.65-3.45l.1.85m-3.65 2.5-1.2-.4-.1-.15.05-.05q.15-.25.45-.2l.3.1q.65.15.5.7m-37.2-2.5.1-.85q1.05 2.05 2.7 3.45l-1-.35-.25-.15-.1-.05-.05-.1-1-1-.3-.6-.1-.35m3.7 2.5q-.2-.55.45-.7l.3-.1q.3-.05.45.2l.05.05-.1.15-1.15.4m3.05-2.25-.15.2-.05.05v-.05l-1.15 1.2-.1.05 1.2-2.65.25-2.15v-.05l.1.05h.05l.05.05.1.85v1.25l-.25 1.15-.05.05" fill="#a2c4b0" transform="translate(21.25 -21.65)"/></g></defs></svg>

<?xml version="1.0" encoding="UTF-8" standalone="no"?>
<svg xmlns:xlink="http://www.w3.org/1999/xlink" height="65.4px" width="80.15px" xmlns="http://www.w3.org/2000/svg">
  <g transform="matrix(1.0, 0.0, 0.0, 1.0, 31.6, 13.8)">
    <use height="8.05" transform="matrix(1.0, 0.0, 0.0, 1.0, -21.25, 21.65)" width="42.35" xlink:href="#shape0"/>
  </g>
  <defs>
    <g id="shape0" transform="matrix(1.0, 0.0, 0.0, 1.0, 21.25, -21.65)">
      <path d="M20.75 24.1 L20.95 24.5 21.1 24.75 21.0 24.75 Q21.35 26.0 20.55 27.5 L19.15 29.3 17.0 29.7 Q15.95 29.55 14.85 28.95 13.15 27.95 13.15 26.85 L13.1 27.0 13.05 26.95 Q12.6 24.9 12.9 23.15 L13.2 22.55 13.25 22.4 13.3 22.5 Q15.3 21.4 17.9 21.7 L18.05 21.7 18.1 21.75 18.25 21.9 18.3 21.95 18.35 22.05 20.75 24.25 20.75 24.1 M13.6 22.9 L13.55 22.95 13.45 22.95 13.4 23.0 13.3 23.85 13.3 25.1 13.6 26.25 13.6 26.3 Q14.15 27.5 15.5 28.15 L16.7 28.55 17.15 28.6 17.6 28.65 18.6 28.3 18.8 28.15 18.9 28.1 19.0 28.0 19.95 27.0 20.25 26.4 20.35 26.05 Q20.65 24.65 18.9 23.2 L17.35 22.1 Q15.3 22.2 13.6 22.9 M14.95 23.45 L14.4 23.85 14.4 23.9 Q16.0 24.4 17.7 23.4 L17.75 23.3 17.7 23.15 17.7 23.1 17.45 23.0 17.35 22.95 17.0 22.95 Q15.8 23.0 14.95 23.45 M13.8 23.25 L14.6 23.2 Q15.55 22.8 16.75 22.7 L17.2 22.6 18.55 23.35 Q20.15 24.7 19.15 26.35 18.1 28.1 16.95 27.75 L17.6 27.55 Q16.15 28.25 15.0 26.7 13.9 25.2 13.8 23.25 M18.05 23.9 L16.95 24.15 Q16.4 24.25 15.9 24.5 L15.9 24.55 15.0 25.0 15.0 25.05 Q16.85 25.75 18.8 24.4 L18.55 23.9 18.3 23.85 18.05 23.9 M16.25 26.1 L15.7 26.4 15.7 26.45 Q17.35 27.25 18.85 25.7 L18.75 25.45 18.5 25.35 18.1 25.45 18.0 25.5 17.7 25.55 17.2 25.7 16.25 26.1 M-17.1 22.95 L-17.5 22.95 -17.6 23.0 -17.85 23.1 -17.85 23.15 -17.9 23.3 -17.85 23.4 Q-16.15 24.4 -14.55 23.9 L-14.55 23.85 -15.1 23.45 -17.1 22.95 M-18.45 21.95 L-18.4 21.9 -18.25 21.75 -18.2 21.7 -18.05 21.7 Q-15.45 21.4 -13.4 22.5 L-13.4 22.4 -13.3 22.55 -13.0 23.15 Q-12.75 24.9 -13.2 26.95 L-13.25 27.0 -13.3 26.85 Q-13.3 27.95 -15.0 28.95 L-17.1 29.7 -19.25 29.3 -20.7 27.5 Q-21.5 26.0 -21.15 24.75 L-21.25 24.75 -21.05 24.5 -20.9 24.1 -20.85 24.25 Q-19.95 23.05 -18.45 22.05 L-18.45 21.95 M-16.0 24.55 L-16.0 24.5 Q-16.55 24.25 -17.05 24.15 L-18.15 23.9 -18.2 23.9 -18.45 23.85 -18.7 23.9 Q-19.0 24.05 -18.95 24.4 -17.0 25.75 -15.15 25.05 L-15.15 25.0 -16.0 24.55 M-16.85 22.7 L-14.75 23.2 -13.95 23.25 Q-14.05 25.2 -15.15 26.7 -16.3 28.25 -17.7 27.55 L-17.05 27.75 Q-18.25 28.1 -19.3 26.35 -20.3 24.7 -18.7 23.35 L-17.35 22.6 -16.85 22.7 M-13.75 22.9 Q-15.45 22.2 -17.5 22.1 L-19.05 23.2 Q-20.8 24.65 -20.5 26.05 L-20.4 26.4 -20.1 27.0 -19.1 28.0 -19.05 28.1 -18.95 28.15 -18.7 28.3 -17.7 28.65 -17.3 28.6 -16.8 28.55 -15.65 28.15 Q-14.3 27.5 -13.75 26.3 L-13.7 26.25 -13.45 25.1 -13.45 23.85 -13.55 23.0 -13.6 22.95 -13.65 22.95 -13.75 22.9 M-16.35 26.1 L-17.35 25.7 -17.8 25.55 -18.0 25.5 -18.2 25.45 -18.65 25.35 -18.9 25.45 -19.0 25.7 Q-17.5 27.25 -15.85 26.45 L-15.85 26.4 -16.35 26.1" fill="#3a3629" fill-rule="evenodd" stroke="none"/>
      <path d="M14.95 23.45 Q15.8 23.0 17.0 22.95 16.5 24.1 14.95 23.45 M18.05 23.9 L18.35 23.95 18.6 24.1 18.6 24.25 18.6 24.3 15.75 24.75 15.75 24.7 15.9 24.55 15.9 24.5 Q16.4 24.25 16.95 24.15 L18.05 23.9 M16.25 26.1 L17.2 25.7 17.7 25.55 18.0 25.5 18.1 25.45 18.25 25.45 18.5 25.7 Q17.3 26.65 16.25 26.1 M-15.1 23.45 Q-16.65 24.1 -17.1 22.95 L-15.1 23.45 M-18.2 23.9 L-18.15 23.9 -17.05 24.15 Q-16.55 24.25 -16.0 24.5 L-16.0 24.55 -15.9 24.7 -15.9 24.75 Q-17.2 24.9 -18.75 24.3 L-18.75 24.25 -18.75 24.1 -18.5 23.95 -18.2 23.9 M-17.8 25.55 L-17.35 25.7 -16.35 26.1 Q-17.45 26.65 -18.65 25.7 L-18.4 25.45 -18.2 25.45 -18.0 25.5 -17.8 25.55" fill="#ffffff" fill-rule="evenodd" stroke="none"/>
      <path d="M17.0 22.95 L17.35 22.95 17.45 23.0 17.7 23.1 17.7 23.15 17.75 23.3 17.7 23.4 Q16.0 24.4 14.4 23.9 L14.4 23.85 14.95 23.45 Q16.5 24.1 17.0 22.95 M15.9 24.55 L15.75 24.7 15.75 24.75 18.6 24.3 18.6 24.25 18.6 24.1 18.35 23.95 18.05 23.9 18.3 23.85 18.55 23.9 18.8 24.4 Q16.85 25.75 15.0 25.05 L15.0 25.0 15.9 24.55 M18.1 25.45 L18.5 25.35 18.75 25.45 18.85 25.7 Q17.35 27.25 15.7 26.45 L15.7 26.4 16.25 26.1 Q17.3 26.65 18.5 25.7 L18.25 25.45 18.1 25.45 M-15.1 23.45 L-14.55 23.85 -14.55 23.9 Q-16.15 24.4 -17.85 23.4 L-17.9 23.3 -17.85 23.15 -17.85 23.1 -17.6 23.0 -17.5 22.95 -17.1 22.95 Q-16.65 24.1 -15.1 23.45 M-16.0 24.55 L-15.15 25.0 -15.15 25.05 Q-17.0 25.75 -18.95 24.4 -19.0 24.05 -18.7 23.9 L-18.45 23.85 -18.2 23.9 -18.5 23.95 -18.75 24.1 -18.75 24.25 -18.75 24.3 Q-17.2 24.9 -15.9 24.75 L-15.9 24.7 -16.0 24.55 M-16.35 26.1 L-15.85 26.4 -15.85 26.45 Q-17.5 27.25 -19.0 25.7 L-18.9 25.45 -18.65 25.35 -18.2 25.45 -18.4 25.45 -18.65 25.7 Q-17.45 26.65 -16.35 26.1" fill="#dfa63c" fill-rule="evenodd" stroke="none"/>
      <path d="M13.6 26.3 L13.75 26.5 13.8 26.55 13.8 26.5 14.95 27.7 15.05 27.75 13.9 25.1 13.6 22.95 13.6 22.9 Q15.3 22.2 17.35 22.1 L18.9 23.2 Q20.65 24.65 20.35 26.05 L20.25 25.2 Q19.2 27.25 17.6 28.65 L17.15 28.6 16.7 28.55 Q16.85 28.0 16.2 27.85 L15.9 27.75 Q15.6 27.7 15.45 27.95 L15.4 28.0 15.5 28.15 Q14.15 27.5 13.6 26.3 M13.8 23.25 Q13.9 25.2 15.0 26.7 16.15 28.25 17.6 27.55 L16.95 27.75 Q18.1 28.1 19.15 26.35 20.15 24.7 18.55 23.35 L17.2 22.6 16.75 22.7 Q15.55 22.8 14.6 23.2 L13.8 23.25 M-20.5 26.05 Q-20.8 24.65 -19.05 23.2 L-17.5 22.1 Q-15.45 22.2 -13.75 22.9 L-13.75 22.95 -14.0 25.1 -15.2 27.75 -15.1 27.7 -13.95 26.5 -13.95 26.55 -13.9 26.5 -13.75 26.3 Q-14.3 27.5 -15.65 28.15 L-15.55 28.0 -15.6 27.95 Q-15.75 27.7 -16.05 27.75 L-16.35 27.85 Q-17.0 28.0 -16.8 28.55 L-17.3 28.6 -17.7 28.65 Q-19.35 27.25 -20.4 25.2 L-20.5 26.05 M-16.85 22.7 L-17.35 22.6 -18.7 23.35 Q-20.3 24.7 -19.3 26.35 -18.25 28.1 -17.05 27.75 L-17.7 27.55 Q-16.3 28.25 -15.15 26.7 -14.05 25.2 -13.95 23.25 L-14.75 23.2 -16.85 22.7" fill="#4f7b63" fill-rule="evenodd" stroke="none"/>
      <path d="M13.6 26.3 L13.6 26.25 13.3 25.1 13.3 23.85 13.4 23.0 13.45 22.95 13.55 22.95 13.6 22.9 13.6 22.95 13.9 25.1 15.05 27.75 14.95 27.7 13.8 26.5 13.8 26.55 13.75 26.5 13.6 26.3 M20.35 26.05 L20.25 26.4 19.95 27.0 19.0 28.0 18.9 28.1 18.8 28.15 18.6 28.3 17.6 28.65 Q19.2 27.25 20.25 25.2 L20.35 26.05 M16.7 28.55 L15.5 28.15 15.4 28.0 15.45 27.95 Q15.6 27.7 15.9 27.75 L16.2 27.85 Q16.85 28.0 16.7 28.55 M-20.5 26.05 L-20.4 25.2 Q-19.35 27.25 -17.7 28.65 L-18.7 28.3 -18.95 28.15 -19.05 28.1 -19.1 28.0 -20.1 27.0 -20.4 26.4 -20.5 26.05 M-16.8 28.55 Q-17.0 28.0 -16.35 27.85 L-16.05 27.75 Q-15.75 27.7 -15.6 27.95 L-15.55 28.0 -15.65 28.15 -16.8 28.55 M-13.75 26.3 L-13.9 26.5 -13.95 26.55 -13.95 26.5 -15.1 27.7 -15.2 27.75 -14.0 25.1 -13.75 22.95 -13.75 22.9 -13.65 22.95 -13.6 22.95 -13.55 23.0 -13.45 23.85 -13.45 25.1 -13.7 26.25 -13.75 26.3" fill="#a2c4b0" fill-rule="evenodd" stroke="none"/>
    </g>
  </defs>
</svg>
